X: 1
T: Scarce o' Tatties
T: Cion a'Bhunta'ta
C: Norman MacLean
R: jig
N: jig-time variant of the old tune "The Banks of the Devon"
L: 1/8
M: 6/8
K: ADor
|: "Am"A>ee   efg |    e>dB  "G"dBG  | "Am"A>ee efg | "Em"e>dB "Am"A3 \
|  "Am"~a3 "C"gag | "D"f>gf "Am"eAA  | "Am"A>ee efg | "Em"e>dB "Am"A3 :|
|: "Am"a>eg   a2e | "G"g2f  "Am"e>AA |     a>eg a2e |  "D"g2f  "Em"e3 \
|  "Am"~e3   ~A3  | "D"d>ff "Am"f>ee |     A>ee efg | "Em"e>dB "Am"A3 :|
